icons/src/fluent/svg/chat_help_24_regular.svg

<svg width="24" height="24" viewBox="0 0 24 24" fill="none" xmlns="http://www.w3.org/2000/svg">
<path d="M12 2C17.5228 2 22 6.47715 22 12C22 17.5228 17.5228 22 12 22C10.3817 22 8.81782 21.6146 7.41286 20.888L3.58704 21.9553C2.92212 22.141 2.23258 21.7525 2.04691 21.0876C1.98546 20.8676 1.98549 20.6349 2.04695 20.4151L3.11461 16.5922C2.38637 15.186 2 13.6203 2 12C2 6.47715 6.47715 2 12 2ZM12 3.5C7.30558 3.5 3.5 7.30558 3.5 12C3.5 13.4696 3.87277 14.8834 4.57303 16.1375L4.72368 16.4072L3.61096 20.3914L7.59755 19.2792L7.86709 19.4295C9.12006 20.1281 10.5322 20.5 12 20.5C16.6944 20.5 20.5 16.6944 20.5 12C20.5 7.30558 16.6944 3.5 12 3.5ZM12 15.5C12.5523 15.5 13 15.9477 13 16.5C13 17.0523 12.5523 17.5 12 17.5C11.4477 17.5 11 17.0523 11 16.5C11 15.9477 11.4477 15.5 12 15.5ZM12 6.75C13.5188 6.75 14.75 7.98122 14.75 9.5C14.75 10.5108 14.4525 11.074 13.6989 11.8586L13.5303 12.0303C12.9084 12.6522 12.75 12.9163 12.75 13.5C12.75 13.9142 12.4142 14.25 12 14.25C11.5858 14.25 11.25 13.9142 11.25 13.5C11.25 12.4892 11.5475 11.926 12.3011 11.1414L12.4697 10.9697C13.0916 10.3478 13.25 10.0837 13.25 9.5C13.25 8.80964 12.6904 8.25 12 8.25C11.3528 8.25 10.8205 8.74187 10.7565 9.37219L10.75 9.5C10.75 9.91421 10.4142 10.25 10 10.25C9.58579 10.25 9.25 9.91421 9.25 9.5C9.25 7.98122 10.4812 6.75 12 6.75Z" fill="#212121"/>
</svg>

<svg width="24" height="24" fill="none" viewBox="0 0 24 24" xmlns="http://www.w3.org/2000/svg">
    <path d="M12 2c5.523 0 10 4.477 10 10s-4.477 10-10 10a9.96 9.96 0 0 1-4.587-1.112l-3.826 1.067a1.25 1.25 0 0 1-1.54-1.54l1.068-3.823A9.96 9.96 0 0 1 2 12C2 6.477 6.477 2 12 2Zm0 1.5A8.5 8.5 0 0 0 3.5 12c0 1.47.373 2.883 1.073 4.137l.15.27-1.112 3.984 3.987-1.112.27.15A8.5 8.5 0 1 0 12 3.5Zm0 12a1 1 0 1 1 0 2 1 1 0 0 1 0-2Zm0-8.75a2.75 2.75 0 0 1 2.75 2.75c0 1.01-.297 1.574-1.051 2.359l-.169.171c-.622.622-.78.886-.78 1.47a.75.75 0 0 1-1.5 0c0-1.01.297-1.574 1.051-2.359l.169-.171c.622-.622.78-.886.78-1.47a1.25 1.25 0 0 0-2.493-.128l-.007.128a.75.75 0 0 1-1.5 0A2.75 2.75 0 0 1 12 6.75Z" fill="#212121"/>
</svg>
